64x64/apps/half-life-alyx.svg

<svg height="64" width="64" xmlns="http://www.w3.org/2000/svg"><rect height="56" opacity=".2" rx="4" width="56" x="4" y="5"/><rect fill="#a1441e" height="56" rx="4" width="56" x="4" y="4"/><path d="m18 44.992 3.336 2.008 10.21-15.232 5.84 14.232 8.357-3.354-1.49-3.712-4.672 1.877-8.936-21.811h-6.645v4h3.951l1.762 4.293z" opacity=".2"/><path d="m18 43.992 3.336 2.008 10.21-15.232 5.84 14.232 8.357-3.354-1.49-3.712-4.672 1.877-8.936-21.811h-6.645v4h3.951l1.762 4.293z" fill="#c9c9c9"/><path d="m8 4c-2.216 0-4 1.784-4 4v1c0-2.216 1.784-4 4-4h48c2.216 0 4 1.784 4 4v-1c0-2.216-1.784-4-4-4z" fill="#f4f4f7" opacity=".2"/></svg>

<svg width="64" height="64" xmlns="http://www.w3.org/2000/svg"><rect x="4" y="5" width="56" height="56" rx="4" ry="4" style="opacity:.2"/><rect x="4" y="4" width="56" height="56" rx="4" ry="4" style="fill:#a1441e"/><path d="M18 44.992 21.336 47l10.21-15.232L37.386 46l8.357-3.354-1.49-3.712-4.672 1.877L30.645 19H24v4h3.951l1.762 4.293z" style="opacity:.2"/><path d="M18 43.992 21.336 46l10.21-15.232L37.386 45l8.357-3.354-1.49-3.712-4.672 1.877L30.645 18H24v4h3.951l1.762 4.293z" style="fill:#c9c9c9"/><path d="M8 4C5.784 4 4 5.784 4 8v1c0-2.216 1.784-4 4-4h48c2.216 0 4 1.784 4 4V8c0-2.216-1.784-4-4-4H8z" style="fill:#f4f4f7;opacity:.2"/></svg>
